X:1
T:Title
%%score { ( 1 4 ) | ( 2 3 ) }
L:1/8
Q:1/4=100
M:4/4
K:G
V:1 treble nm="Grand Piano"
V:4 treble 
V:2 bass 
V:3 bass 
V:1
 [GB]3 [Ac] [Bd]2 [GB]2 | [GB]2 [FA]4 [FA][GB] | [Ac]2 [Ac]2 [DF]2 [CA]2 | [B,G]6 GA | %4
w: C.~C.~Case * * *||||
 B3 [Ac] [Bd]2 [GB]2 | [GB]2 [FA]4 [Ec][Ed] | [Ee]2 [Gd]2 [Gc]2 .[A,DF]2 | [B,DG]6 z2 | [Bd]6 B2 | %9
w: |||||
 [FA]6 z2 |[M:2/4] [EAc]3 [EBd] | [Ece]2 [DAc]2 |[M:4/4] [DGB]6 z2 | [Bd]6 B2 | [FA]6 z2 | %15
w: ||||||
 [EGc]2 [EGc]2 [DGB]2 [DFA]2 |[M:3/4] [B,G]6 |] %17
w: ||
V:2
 [G,B,]3 [G,D] [G,D]2 [G,D]2 | [D,D]2 [D,D]4 [D,A,][D,A,] | [D,A,]2 [D,A,]2 [D,A,]2 [D,F,]2 | %3
 [G,,G,]6 [G,B,][K:treble][G,CF] | [G,DG]3 [G,D] [G,D]2 [G,D]2 | [D,D]2 [D,C]4 [C,A,][B,,B,] | %6
 [A,,C]2 [B,,B,]2 [C,A,]2 z C | G,,6 z2 | G,2 G,2 G,2 G2 | D,2 D,2 D,2 G,2 |[M:2/4] C,3 B,, | %11
 A,,2 D,2 |[M:4/4] B,,2 B,,2 D,2 F,2 | G,2 G,2 G,2 G2 | D,2 D,2 D,2[K:treble] [G,DE][G,B,G] | %15
 C,2 C,2 D,2 D,2 |[M:3/4] G,,6 |] %17
V:3
 x8 | x8 | x8 | x7[K:treble] x | x8 | x8 | z4 z2 D,2 | x8 | x8 | x8 |[M:2/4] x4 | x4 |[M:4/4] x8 | %13
 x8 | x6[K:treble] x2 | x8 |[M:3/4] x6 |] %17
V:4
 x8 | x8 | x8 | x8 | x8 | x8 | x8 | x8 | x8 | D2 D2 D2 [DGB]2 |[M:2/4] x4 | x4 |[M:4/4] x8 | x8 | %14
 D2 D2 D2 Bd | x8 |[M:3/4] x6 |] %17

